rospo-icon-theme-classic-common/48x48/status/airplane-mode.svg

<svg height="48" viewBox="0 0 48 48" width="48" xmlns="http://www.w3.org/2000/svg"><g transform="translate(0 -1004.3622)"><path d="m23.921753 1039.3632c-.493655.013-.940456.142-1.187654.3442l-5.270349 4.3098-5.268289 4.3097c-.561837.4601.141056 1.035 1.265871 1.0353l10.538639-2 10.538638 2c1.124815-.0003 1.82771-.5752 1.265872-1.0353l-5.269319-4.3097-5.26829-4.3098c-.27534-.2252-.795259-.3582-1.345119-.3442z" opacity=".2"/><path d="m23.869639 1019.3642c-.822757.025-1.567423.2841-1.97942.6884l-8.783891 8.6194-8.7804609 8.6195c-.9365915.9203.234962 2.0702 2.1097807 2.0707l17.5643522-6 17.564353 6c1.874818-.0005 3.046371-1.1504 2.10978-2.0707l-8.782176-8.6195-8.780461-8.6194c-.458898-.4504-1.325427-.7165-2.241857-.6884z" opacity=".2"/><path d="m23.869639 1018.3642c-.822757.025-1.567423.2841-1.97942.6884l-8.783891 8.6194-8.7804609 8.6195c-.9365915.9203.234962 2.0702 2.1097807 2.0707l17.5643522-6 17.564353 6c1.874818-.0005 3.046371-1.1504 2.10978-2.0707l-8.782176-8.6195-8.780461-8.6194c-.458898-.4504-1.325427-.7165-2.241857-.6884z" fill="#357fbc"/><path d="m23.869141 14.001953a2.4368828 1.3808684 0 0 0 -1.978516.6875l-8.785156 8.621094-8.7792971 8.619141a2.4368828 1.3808684 0 0 0 -.1582031 1.191406 2.4368828 1.3808684 0 0 1  .1582031-.191406l8.7792971-8.619141 8.785156-8.621094a2.4368828 1.3808684 0 0 1 1.978516-.6875 2.4368828 1.3808684 0 0 1 2.242187.6875l8.78125 8.621094 8.78125 8.619141a2.4368828 1.3808684 0 0 1  .160156.189453 2.4368828 1.3808684 0 0 0 -.160156-1.189453l-8.78125-8.619141-8.78125-8.621094a2.4368828 1.3808684 0 0 0 -2.242187-.6875z" fill="#fff" opacity=".1" transform="translate(0 1004.3622)"/><path d="m23.921753 1038.3632c-.493655.013-.940456.142-1.187654.3442l-5.270349 4.3098-5.268289 4.3097c-.561837.4601.141056 1.035 1.265871 1.0353l10.538639-2 10.538638 2c1.124815-.0003 1.82771-.5752 1.265872-1.0353l-5.269319-4.3097-5.26829-4.3098c-.27534-.2252-.795259-.3582-1.345119-.3442z" fill="#357fbc"/><path d="m23.921875 34.001953c-.493655.013-.940302.14155-1.1875.34375l-5.271484 4.308594-5.267579 4.310547c-.348819.285655-.209649.615045.214844.824218l5.052735-4.134765 5.271484-4.308594c.247198-.2022.693845-.33075 1.1875-.34375.54986-.014 1.070363.11855 1.345703.34375l5.267578 4.308594 5.054688 4.134765c.424493-.209173.563664-.538563.214844-.824218l-5.269532-4.310547-5.267578-4.308594c-.27534-.2252-.795843-.35775-1.345703-.34375z" fill="#fff" opacity=".1" transform="translate(0 1004.3622)"/><path d="m20 1013.3622s1-4 4-4 4 4 4 4v29c0 2-3 4-4 4s-4-2-4-4z" opacity=".2"/><path d="m20 1012.3622s1-4 4-4 4 4 4 4v29c0 2-3 4-4 4s-4-2-4-4z" fill="#84b5dc"/><path d="m24 4c-3 0-4 4-4 4v1s1-4 4-4 4 4 4 4v-1s-1-4-4-4z" fill="#fff" opacity=".1" transform="translate(0 1004.3622)"/></g></svg>

<svg xmlns="http://www.w3.org/2000/svg" width="48" height="48" version="1.1" viewBox="0 0 48 48">
 <g transform="translate(0,-1004.3622)">
  <path style="opacity:0.2" d="m 23.921753,1039.3632 c -0.493655,0.013 -0.940456,0.142 -1.187654,0.3442 l -5.270349,4.3098 -5.268289,4.3097 c -0.561837,0.4601 0.141056,1.035 1.265871,1.0353 l 10.538639,-2 10.538638,2 c 1.124815,-3e-4 1.82771,-0.5752 1.265872,-1.0353 l -5.269319,-4.3097 -5.26829,-4.3098 c -0.27534,-0.2252 -0.795259,-0.3582 -1.345119,-0.3442 z"/>
  <path style="opacity:0.2" d="m 23.869639,1019.3642 c -0.822757,0.025 -1.567423,0.2841 -1.97942,0.6884 l -8.783891,8.6194 -8.7804609,8.6195 c -0.9365915,0.9203 0.234962,2.0702 2.1097807,2.0707 l 17.5643522,-6 17.564353,6 c 1.874818,-5e-4 3.046371,-1.1504 2.10978,-2.0707 l -8.782176,-8.6195 -8.780461,-8.6194 c -0.458898,-0.4504 -1.325427,-0.7165 -2.241857,-0.6884 z"/>
  <path style="fill:#357fbc" d="m 23.869639,1018.3642 c -0.822757,0.025 -1.567423,0.2841 -1.97942,0.6884 l -8.783891,8.6194 -8.7804609,8.6195 c -0.9365915,0.9203 0.234962,2.0702 2.1097807,2.0707 l 17.5643522,-6 17.564353,6 c 1.874818,-5e-4 3.046371,-1.1504 2.10978,-2.0707 l -8.782176,-8.6195 -8.780461,-8.6194 c -0.458898,-0.4504 -1.325427,-0.7165 -2.241857,-0.6884 z"/>
  <path style="opacity:0.1;fill:#ffffff" d="M 23.869141 14.001953 A 2.4368828 1.3808684 0 0 0 21.890625 14.689453 L 13.105469 23.310547 L 4.3261719 31.929688 A 2.4368828 1.3808684 0 0 0 4.1679688 33.121094 A 2.4368828 1.3808684 0 0 1 4.3261719 32.929688 L 13.105469 24.310547 L 21.890625 15.689453 A 2.4368828 1.3808684 0 0 1 23.869141 15.001953 A 2.4368828 1.3808684 0 0 1 26.111328 15.689453 L 34.892578 24.310547 L 43.673828 32.929688 A 2.4368828 1.3808684 0 0 1 43.833984 33.119141 A 2.4368828 1.3808684 0 0 0 43.673828 31.929688 L 34.892578 23.310547 L 26.111328 14.689453 A 2.4368828 1.3808684 0 0 0 23.869141 14.001953 z" transform="translate(0,1004.3622)"/>
  <path style="fill:#357fbc" d="m 23.921753,1038.3632 c -0.493655,0.013 -0.940456,0.142 -1.187654,0.3442 l -5.270349,4.3098 -5.268289,4.3097 c -0.561837,0.4601 0.141056,1.035 1.265871,1.0353 l 10.538639,-2 10.538638,2 c 1.124815,-3e-4 1.82771,-0.5752 1.265872,-1.0353 l -5.269319,-4.3097 -5.26829,-4.3098 c -0.27534,-0.2252 -0.795259,-0.3582 -1.345119,-0.3442 z"/>
  <path style="opacity:0.1;fill:#ffffff" d="M 23.921875 34.001953 C 23.42822 34.014953 22.981573 34.143503 22.734375 34.345703 L 17.462891 38.654297 L 12.195312 42.964844 C 11.846493 43.250499 11.985663 43.579889 12.410156 43.789062 L 17.462891 39.654297 L 22.734375 35.345703 C 22.981573 35.143503 23.42822 35.014953 23.921875 35.001953 C 24.471735 34.987953 24.992238 35.120503 25.267578 35.345703 L 30.535156 39.654297 L 35.589844 43.789062 C 36.014337 43.579889 36.153508 43.250499 35.804688 42.964844 L 30.535156 38.654297 L 25.267578 34.345703 C 24.992238 34.120503 24.471735 33.987953 23.921875 34.001953 z" transform="translate(0,1004.3622)"/>
  <path style="opacity:0.2" d="m 20,1013.3622 c 0,0 1,-4 4,-4 3,0 4,4 4,4 l 0,29 c 0,2 -3,4 -4,4 -1,0 -4,-2 -4,-4 z"/>
  <path style="fill:#84b5dc" d="m 20,1012.3622 c 0,0 1,-4 4,-4 3,0 4,4 4,4 l 0,29 c 0,2 -3,4 -4,4 -1,0 -4,-2 -4,-4 z"/>
  <path style="opacity:0.1;fill:#ffffff" d="M 24 4 C 21 4 20 8 20 8 L 20 9 C 20 9 21 5 24 5 C 27 5 28 9 28 9 L 28 8 C 28 8 27 4 24 4 z" transform="translate(0,1004.3622)"/>
 </g>
</svg>
